dist/images/Logotype.svg

<?xml version="1.0" encoding="UTF-8" standalone="no"?>
<svg width="224px" height="62px" viewBox="0 0 224 62" version="1.1" xmlns="http://www.w3.org/2000/svg" xmlns:xlink="http://www.w3.org/1999/xlink">
    <!-- Generator: Sketch 41.2 (35397) - http://www.bohemiancoding.com/sketch -->
    <title>Logotype</title>
    <desc>Created with Sketch.</desc>
    <defs></defs>
    <g id="Pages" stroke="none" stroke-width="1" fill="none" fill-rule="evenodd">
        <g id="Homepage" transform="translate(-930.000000, -1662.000000)" fill="#FFFFFF">
            <g id="footer" transform="translate(0.000000, 1632.000000)">
                <g id="Logotype" transform="translate(930.000000, 30.000000)">
                    <g id="Logo">
                        <path d="M21.5420959,35.0733912 C24.939029,31.2717658 29.2047314,28.723953 33.9046845,27.9894966 L35.0384682,49.8984417 C34.397999,49.8893416 33.7552175,49.9289293 33.1119571,50.0193337 C32.6316973,50.0868298 32.1595017,50.181481 31.6958596,50.3022254 L21.5420959,35.0733912 Z M19.7351055,37.3274329 C16.7026901,41.541966 14.6043753,46.8869633 13.8639502,52.8166976 L23.826528,55.7312403 C25.2907054,53.8852452 26.9854034,52.4145313 28.8681413,51.4112986 L19.7351055,37.3274329 Z M50.757154,33.8700666 C46.8634052,30.0434783 41.9993415,27.7708333 36.7230769,27.7708333 C36.6848495,27.7708333 36.6466437,27.7709526 36.6084598,27.7711909 L38.062722,50.3010734 C39.282037,50.6081031 40.4816985,51.0856596 41.648319,51.7181991 L50.757154,33.8700666 Z M52.7277009,36.0406712 C56.3726819,40.5316724 58.8800791,46.5412007 59.6371788,53.2802442 L47.7342863,56.7624242 C46.6116746,55.4613085 45.4155988,54.3199383 44.1651599,53.360491 L52.7277009,36.0406712 Z M59.8501586,56.1404566 C59.8679339,56.6196951 59.8769231,57.1018985 59.8769231,57.5868056 C59.8769231,59.086299 59.7909643,60.559939 59.6250461,62 L51.3705079,62 C50.8331159,61.0405115 50.2631517,60.1263401 49.66439,59.2618686 L59.8501586,56.1404566 Z M13.6160677,55.6748747 C13.5850002,56.3070374 13.5692308,56.94455 13.5692308,57.5868056 C13.5692308,59.086299 13.6551895,60.559939 13.8211078,62 L20.2860945,62 C20.8126554,60.6704522 21.4171054,59.4232536 22.092909,58.2725888 L13.6160677,55.6748747 Z" id="Combined-Shape"></path>
                        <path d="M9.34134955,49.9079898 C8.51556423,50.5958938 7.4077193,51.4144198 6.26458487,51.9522059 L5.66746839,42.7014914 C6.69765924,41.9594845 7.78541619,41.2153287 8.85481445,40.5063104 L9.34134955,49.9079898 Z M12.0429926,45.5668478 L16.1538462,35.9513889 C16.1538462,35.9513889 14.1745872,37.1044604 11.6016951,38.7301297 L12.0429926,45.5668478 Z M3.35297765,52.3777279 C1.74213165,51.7781052 0.597053868,49.5432322 0.0833735133,48.6471834 C-0.349016821,47.8929346 0.943648458,46.4373933 2.95941449,44.7726143 L3.35297765,52.3777279 Z" id="Combined-Shape"></path>
                        <path d="M80.6523278,27.9663204 C79.989044,27.4105144 79.2267883,26.7876028 78.3697773,26.0684852 C78.1939845,25.9209775 78.0151636,25.7702265 77.8335314,25.6166956 L64.4115541,40.5940189 C65.8329626,40.8228865 67.30618,40.9382026 68.7705776,40.9393981 L80.6523278,27.9663204 Z M82.7009375,29.8284959 C84.5694961,31.8281206 84.200539,33.1859903 81.1754434,36.7911589 C79.5098206,38.7761708 76.4892055,40.0447285 73.0430418,40.6055538 L82.7009375,29.8284959 Z M75.7225334,23.8298921 C74.7997002,23.0536869 73.8337501,22.2545148 72.8461594,21.4783178 L57.7333969,38.3423555 C58.7265779,38.9327023 59.860593,39.42287 61.0845313,39.8123808 L75.7225334,23.8298921 Z M70.6598701,19.8350274 C66.0891644,16.5771882 61.3953865,14.4810635 58.5824521,17.8333882 C57.8466855,18.7102406 57.1323261,19.6871121 56.4776045,20.7296095 C58.8925476,21.1132145 60.7384615,23.2039933 60.7384615,25.7256944 C60.7384615,28.5197183 58.4723336,30.7847222 55.6769231,30.7847222 C54.7864628,30.7847222 53.9497089,30.5548922 53.2228007,30.1513436 C53.1554271,32.4826321 53.776283,34.6913836 55.4101526,36.4854171 L70.6598701,19.8350274 Z" id="Combined-Shape"></path>
                        <path d="M57.6514863,13.6970754 C57.2436847,15.3183297 56.7194437,16.6433587 56.0852964,17.3322001 L51.0340397,9.75621618 C51.0435705,9.75066203 51.0531177,9.74512192 51.0626832,9.73959927 C51.8134852,9.30612352 52.5827034,8.27094537 53.3305971,7.03392141 L57.6514863,13.6970754 Z M58.3939918,9.49116424 C58.8512965,5.60326485 58.7869349,1.59061804 58.1428387,0.475010698 C57.4616667,-0.704813867 56.2707205,1.59562496 54.8831499,4.22552766 L58.3939918,9.49116424 Z M53.381317,18.5341243 C51.2734401,18.9201288 49.2551806,18.2339131 48.3239286,16.6209373 C47.4594604,15.1236344 47.754948,13.2144351 48.9122437,11.6424588 L53.381317,18.5341243 Z" id="Combined-Shape"></path>
                        <ellipse id="Oval-5" cx="54.2769231" cy="25.4027778" rx="2.36923077" ry="2.36805556"></ellipse>
                    </g>
                    <path d="M106.036133,36 L106.036133,23.1503906 L108.760742,23.1503906 L108.760742,33.75 L113.972656,33.75 L113.972656,36 L106.036133,36 Z M116.205078,36 L116.205078,23.1503906 L118.929688,23.1503906 L118.929688,36 L116.205078,36 Z M127.121094,36 L124.396484,36 L124.396484,25.4179688 L120.907227,25.4179688 L120.907227,23.1503906 L130.610352,23.1503906 L130.610352,25.4179688 L127.121094,25.4179688 L127.121094,36 Z M137.905273,36 L135.180664,36 L135.180664,25.4179688 L131.691406,25.4179688 L131.691406,23.1503906 L141.394531,23.1503906 L141.394531,25.4179688 L137.905273,25.4179688 L137.905273,36 Z M143.37207,36 L143.37207,23.1503906 L146.09668,23.1503906 L146.09668,33.75 L151.308594,33.75 L151.308594,36 L143.37207,36 Z M160.941406,36 L153.541016,36 L153.541016,23.1503906 L160.941406,23.1503906 L160.941406,25.3828125 L156.265625,25.3828125 L156.265625,28.2041016 L160.616211,28.2041016 L160.616211,30.4365234 L156.265625,30.4365234 L156.265625,33.75 L160.941406,33.75 L160.941406,36 Z M176.673828,36 L167.111328,36 L167.111328,34.2333984 L173.272461,25.4003906 L167.27832,25.4003906 L167.27832,23.1503906 L176.506836,23.1503906 L176.506836,24.9082031 L170.354492,33.75 L176.673828,33.75 L176.673828,36 Z M186.12207,36 L178.72168,36 L178.72168,23.1503906 L186.12207,23.1503906 L186.12207,25.3828125 L181.446289,25.3828125 L181.446289,28.2041016 L185.796875,28.2041016 L185.796875,30.4365234 L181.446289,30.4365234 L181.446289,33.75 L186.12207,33.75 L186.12207,36 Z M188.802734,23.1503906 L192.801758,23.1503906 C194.624033,23.1503906 195.946773,23.4096654 196.77002,23.9282227 C197.593266,24.4467799 198.004883,25.2714787 198.004883,26.4023438 C198.004883,27.1699257 197.824709,27.7998022 197.464355,28.2919922 C197.104002,28.7841821 196.625003,29.0800776 196.027344,29.1796875 L196.027344,29.2675781 C196.841801,29.4492197 197.429197,29.78906 197.789551,30.2871094 C198.149904,30.7851587 198.330078,31.4472615 198.330078,32.2734375 C198.330078,33.4453184 197.906743,34.3593717 197.060059,35.015625 C196.213375,35.6718783 195.063484,36 193.610352,36 L188.802734,36 L188.802734,23.1503906 Z M191.527344,28.2392578 L193.109375,28.2392578 C193.84766,28.2392578 194.382323,28.1250011 194.713379,27.8964844 C195.044435,27.6679676 195.209961,27.2900417 195.209961,26.7626953 C195.209961,26.2705054 195.029787,25.9174815 194.669434,25.7036133 C194.30908,25.489745 193.739262,25.3828125 192.959961,25.3828125 L191.527344,25.3828125 L191.527344,28.2392578 Z M191.527344,30.4013672 L191.527344,33.75 L193.302734,33.75 C194.052738,33.75 194.606444,33.6064467 194.963867,33.3193359 C195.321291,33.0322251 195.5,32.5927764 195.5,32.0009766 C195.5,30.934565 194.738289,30.4013672 193.214844,30.4013672 L191.527344,30.4013672 Z M203.621094,28.8544922 L204.5,28.8544922 C205.361332,28.8544922 205.997068,28.7109389 206.407227,28.4238281 C206.817385,28.1367173 207.022461,27.68555 207.022461,27.0703125 C207.022461,26.4609345 206.81299,26.027345 206.394043,25.7695312 C205.975096,25.5117175 205.326176,25.3828125 204.447266,25.3828125 L203.621094,25.3828125 L203.621094,28.8544922 Z M203.621094,31.0693359 L203.621094,36 L200.896484,36 L200.896484,23.1503906 L204.640625,23.1503906 C206.386727,23.1503906 207.678707,23.4682585 208.516602,24.1040039 C209.354496,24.7397493 209.773438,25.7050717 209.773438,27 C209.773438,27.7558632 209.565432,28.4282197 209.149414,29.0170898 C208.733396,29.60596 208.144535,30.0673811 207.382812,30.4013672 C209.316416,33.2900535 210.576169,35.1562458 211.162109,36 L208.138672,36 L205.071289,31.0693359 L203.621094,31.0693359 Z M220.645508,36 L219.713867,32.9414062 L215.029297,32.9414062 L214.097656,36 L211.162109,36 L215.697266,23.0976562 L219.02832,23.0976562 L223.581055,36 L220.645508,36 Z M219.063477,30.65625 C218.202144,27.8847518 217.717286,26.3173846 217.608887,25.9541016 C217.500488,25.5908185 217.422852,25.303712 217.375977,25.0927734 C217.182616,25.8427772 216.628911,27.6972508 215.714844,30.65625 L219.063477,30.65625 Z" id="LITTLE-ZEBRA"></path>
                    <path d="M106.641113,56 L105.479004,56 L105.479004,46.0058594 L111.050293,46.0058594 L111.050293,47.0380859 L106.641113,47.0380859 L106.641113,50.6953125 L110.783691,50.6953125 L110.783691,51.7275391 L106.641113,51.7275391 L106.641113,56 Z M121.379395,50.9892578 C121.379395,52.5888752 120.974939,53.8466751 120.166016,54.7626953 C119.357092,55.6787155 118.232592,56.1367188 116.79248,56.1367188 C115.320468,56.1367188 114.184574,55.6866907 113.384766,54.7866211 C112.584957,53.8865515 112.185059,52.6162191 112.185059,50.9755859 C112.185059,49.3486247 112.586096,48.0874068 113.388184,47.1918945 C114.190271,46.2963822 115.329582,45.8486328 116.806152,45.8486328 C118.241706,45.8486328 119.362789,46.3043574 120.169434,47.2158203 C120.976078,48.1272832 121.379395,49.3850831 121.379395,50.9892578 Z M113.415527,50.9892578 C113.415527,52.3427802 113.703773,53.3692999 114.280273,54.0688477 C114.856774,54.7683954 115.694168,55.1181641 116.79248,55.1181641 C117.899908,55.1181641 118.736163,54.7695347 119.30127,54.0722656 C119.866377,53.3749965 120.148926,52.3473375 120.148926,50.9892578 C120.148926,49.64485 119.867516,48.6251662 119.304688,47.9301758 C118.741859,47.2351853 117.909022,46.8876953 116.806152,46.8876953 C115.698725,46.8876953 114.856774,47.237464 114.280273,47.9370117 C113.703773,48.6365595 113.415527,49.6539647 113.415527,50.9892578 Z M131.154785,46.0058594 L131.154785,52.4726562 C131.154785,53.6119849 130.810713,54.5074837 130.122559,55.1591797 C129.434404,55.8108757 128.488776,56.1367188 127.285645,56.1367188 C126.082514,56.1367188 125.151696,55.808597 124.493164,55.1523438 C123.834632,54.4960905 123.505371,53.5937557 123.505371,52.4453125 L123.505371,46.0058594 L124.66748,46.0058594 L124.66748,52.5273438 C124.66748,53.3613323 124.895343,54.0016254 125.351074,54.4482422 C125.806806,54.894859 126.476721,55.1181641 127.36084,55.1181641 C128.203943,55.1181641 128.853351,54.8937197 129.309082,54.4448242 C129.764813,53.9959287 129.992676,53.3522177 129.992676,52.5136719 L129.992676,46.0058594 L131.154785,46.0058594 Z M141.606934,56 L140.280762,56 L134.818848,47.6123047 L134.76416,47.6123047 C134.837077,48.5966846 134.873535,49.4990193 134.873535,50.3193359 L134.873535,56 L133.800293,56 L133.800293,46.0058594 L135.112793,46.0058594 L140.561035,54.359375 L140.615723,54.359375 C140.606608,54.2363275 140.5861,53.8409864 140.554199,53.1733398 C140.522298,52.5056933 140.510905,52.0283217 140.52002,51.7412109 L140.52002,46.0058594 L141.606934,46.0058594 L141.606934,56 Z M152.33252,50.9072266 C152.33252,52.5569744 151.88477,53.8181923 150.989258,54.690918 C150.093746,55.5636437 148.805184,56 147.123535,56 L144.35498,56 L144.35498,46.0058594 L147.41748,46.0058594 C148.971525,46.0058594 150.179195,46.4365191 151.040527,47.2978516 C151.90186,48.159184 152.33252,49.362297 152.33252,50.9072266 Z M151.102051,50.9482422 C151.102051,49.6448503 150.775068,48.6627637 150.121094,48.0019531 C149.467119,47.3411425 148.495286,47.0107422 147.205566,47.0107422 L145.51709,47.0107422 L145.51709,54.9951172 L146.932129,54.9951172 C148.317553,54.9951172 149.358883,54.654463 150.056152,53.9731445 C150.753421,53.291826 151.102051,52.2835353 151.102051,50.9482422 Z M160.562988,56 L159.318848,52.8212891 L155.312988,52.8212891 L154.08252,56 L152.906738,56 L156.85791,45.9648438 L157.835449,45.9648438 L161.766113,56 L160.562988,56 Z M158.956543,51.7753906 L157.794434,48.6787109 C157.644042,48.2867819 157.489096,47.8059924 157.32959,47.2363281 C157.229329,47.6738303 157.085776,48.1546198 156.898926,48.6787109 L155.723145,51.7753906 L158.956543,51.7753906 Z M165.23877,56 L164.07666,56 L164.07666,47.0380859 L160.911621,47.0380859 L160.911621,46.0058594 L168.403809,46.0058594 L168.403809,47.0380859 L165.23877,47.0380859 L165.23877,56 Z M169.907715,56 L169.907715,46.0058594 L171.069824,46.0058594 L171.069824,56 L169.907715,56 Z M182.48584,50.9892578 C182.48584,52.5888752 182.081384,53.8466751 181.272461,54.7626953 C180.463538,55.6787155 179.339037,56.1367188 177.898926,56.1367188 C176.426913,56.1367188 175.29102,55.6866907 174.491211,54.7866211 C173.691402,53.8865515 173.291504,52.6162191 173.291504,50.9755859 C173.291504,49.3486247 173.692542,48.0874068 174.494629,47.1918945 C175.296716,46.2963822 176.436028,45.8486328 177.912598,45.8486328 C179.348152,45.8486328 180.469234,46.3043574 181.275879,47.2158203 C182.082524,48.1272832 182.48584,49.3850831 182.48584,50.9892578 Z M174.521973,50.9892578 C174.521973,52.3427802 174.810218,53.3692999 175.386719,54.0688477 C175.963219,54.7683954 176.800613,55.1181641 177.898926,55.1181641 C179.006353,55.1181641 179.842608,54.7695347 180.407715,54.0722656 C180.972822,53.3749965 181.255371,52.3473375 181.255371,50.9892578 C181.255371,49.64485 180.973961,48.6251662 180.411133,47.9301758 C179.848304,47.2351853 179.015468,46.8876953 177.912598,46.8876953 C176.80517,46.8876953 175.963219,47.237464 175.386719,47.9370117 C174.810218,48.6365595 174.521973,49.6539647 174.521973,50.9892578 Z M192.520996,56 L191.194824,56 L185.73291,47.6123047 L185.678223,47.6123047 C185.75114,48.5966846 185.787598,49.4990193 185.787598,50.3193359 L185.787598,56 L184.714355,56 L184.714355,46.0058594 L186.026855,46.0058594 L191.475098,54.359375 L191.529785,54.359375 C191.520671,54.2363275 191.500163,53.8409864 191.468262,53.1733398 C191.436361,52.5056933 191.424967,52.0283217 191.434082,51.7412109 L191.434082,46.0058594 L192.520996,46.0058594 L192.520996,56 Z" id="FOUNDATION"></path>
                </g>
            </g>
        </g>
    </g>
</svg>

<svg width="224" height="62" viewBox="0 0 224 62" xmlns="http://www.w3.org/2000/svg"><title>Logotype</title><g fill="#FFF" fill-rule="evenodd"><g><path d="M21.542 35.073c3.397-3.801 7.663-6.349 12.363-7.084l1.133 21.91a12.547 12.547 0 0 0-3.342.403L21.542 35.073zm-1.807 2.254c-3.032 4.215-5.13 9.56-5.871 15.49l9.963 2.914c1.464-1.846 3.158-3.316 5.041-4.32l-9.133-14.084zm31.022-3.457c-3.894-3.827-8.758-6.1-14.034-6.1l-.115.001 1.455 22.53c1.219.307 2.419.785 3.585 1.417l9.11-17.848zm1.97 2.17c3.646 4.492 6.153 10.501 6.91 17.24l-11.903 3.482a24.205 24.205 0 0 0-3.569-3.402l8.563-17.32zm7.123 20.1a39.022 39.022 0 0 1-.225 5.86h-8.254a33.918 33.918 0 0 0-1.707-2.738L59.85 56.14zm-46.234-.465A38.952 38.952 0 0 0 13.821 62h6.465a26.969 26.969 0 0 1 1.807-3.727l-8.477-2.598zM9.341 49.908c-.825.688-1.933 1.506-3.076 2.044l-.598-9.25a101.06 101.06 0 0 1 3.188-2.196l.486 9.402zm2.702-4.341l4.11-9.616s-1.978 1.153-4.551 2.78l.441 6.836zm-8.69 6.81c-1.61-.599-2.756-2.834-3.27-3.73-.432-.754.86-2.21 2.876-3.874l.394 7.605zM80.652 27.966c-.663-.555-1.425-1.178-2.282-1.898l-.536-.451-13.422 14.977a27.71 27.71 0 0 0 4.359.345l11.881-12.973zm2.049 1.862c1.868 2 1.5 3.358-1.526 6.963-1.665 1.985-4.686 3.254-8.132 3.815l9.658-10.778zm-6.978-5.998a112.235 112.235 0 0 0-2.877-2.352L57.733 38.342c.994.59 2.128 1.08 3.352 1.47L75.723 23.83zm-5.063-3.995c-4.57-3.258-9.265-5.354-12.078-2.002a26.245 26.245 0 0 0-2.104 2.897 5.06 5.06 0 1 1-3.255 9.422c-.068 2.33.553 4.54 2.187 6.333l15.25-16.65zM57.651 13.697c-.407 1.621-.932 2.946-1.566 3.635l-5.051-7.576.029-.016c.75-.434 1.52-1.47 2.268-2.706l4.32 6.663zm.743-4.206c.457-3.888.393-7.9-.251-9.016-.681-1.18-1.872 1.12-3.26 3.75l3.511 5.266zm-5.013 9.043c-2.108.386-4.126-.3-5.057-1.913-.865-1.497-.57-3.407.588-4.979l4.47 6.892z"/><ellipse cx="54.277" cy="25.403" rx="2.369" ry="2.368"/></g><path d="M106.036 36V23.15h2.725v10.6h5.212V36h-7.937zm10.17 0V23.15h2.724V36h-2.725zm10.915 0h-2.725V25.418h-3.489V23.15h9.703v2.268h-3.489V36zm10.784 0h-2.724V25.418h-3.49V23.15h9.704v2.268h-3.49V36zm5.467 0V23.15h2.725v10.6h5.212V36h-7.937zm17.57 0h-7.401V23.15h7.4v2.233h-4.675v2.821h4.35v2.233h-4.35v3.313h4.675V36zm15.732 0h-9.563v-1.767l6.161-8.833h-5.994v-2.25h9.229v1.758l-6.153 8.842h6.32V36zm9.448 0h-7.4V23.15h7.4v2.233h-4.676v2.821h4.35v2.233h-4.35v3.313h4.676V36zm2.68-12.85h4c1.822 0 3.145.26 3.968.778.823.519 1.235 1.343 1.235 2.474 0 .768-.18 1.398-.54 1.89a2.16 2.16 0 0 1-1.438.888v.088c.815.181 1.402.521 1.763 1.02.36.497.54 1.16.54 1.985 0 1.172-.423 2.086-1.27 2.743-.847.656-1.997.984-3.45.984h-4.807V23.15zm2.725 5.09h1.582c.739 0 1.273-.115 1.604-.344.331-.228.497-.606.497-1.133 0-.492-.18-.846-.54-1.06-.36-.213-.93-.32-1.71-.32h-1.433v2.856zm0 2.161v3.349h1.776c.75 0 1.303-.144 1.66-.43.358-.288.537-.727.537-1.319 0-1.066-.762-1.6-2.285-1.6h-1.688zm12.094-1.547h.879c.861 0 1.497-.143 1.907-.43.41-.287.615-.738.615-1.354 0-.61-.209-1.043-.628-1.3-.419-.258-1.068-.387-1.947-.387h-.826v3.471zm0 2.215V36h-2.725V23.15h3.745c1.746 0 3.038.318 3.876.954.837.636 1.256 1.601 1.256 2.896a3.41 3.41 0 0 1-.624 2.017c-.416.589-1.004 1.05-1.766 1.384a518.963 518.963 0 0 0 3.78 5.599h-3.024l-3.068-4.93h-1.45zM220.646 36l-.932-3.059h-4.685L214.098 36h-2.936l4.535-12.902h3.331L223.581 36h-2.935zm-1.583-5.344a904.648 904.648 0 0 1-1.454-4.702c-.109-.363-.186-.65-.233-.861-.193.75-.747 2.604-1.661 5.563h3.348zM106.641 56h-1.162v-9.994h5.571v1.032h-4.409v3.657h4.143v1.033h-4.143V56zm14.738-5.01c0 1.599-.404 2.857-1.213 3.773-.809.916-1.933 1.374-3.374 1.374-1.472 0-2.607-.45-3.407-1.35-.8-.9-1.2-2.17-1.2-3.811 0-1.627.401-2.889 1.203-3.784.802-.896 1.942-1.343 3.418-1.343 1.436 0 2.557.455 3.363 1.367.807.911 1.21 2.17 1.21 3.773zm-7.963 0c0 1.353.288 2.38.864 3.079.577.7 1.414 1.05 2.512 1.05 1.108 0 1.944-.35 2.51-1.047.564-.697.847-1.725.847-3.083 0-1.344-.281-2.364-.844-3.059-.563-.695-1.396-1.042-2.499-1.042-1.107 0-1.95.35-2.526 1.049-.576.7-.864 1.717-.864 3.052zm17.739-4.984v6.467c0 1.139-.344 2.034-1.032 2.686-.689.652-1.634.978-2.837.978-1.203 0-2.134-.328-2.793-.985-.658-.656-.988-1.558-.988-2.707v-6.44h1.162v6.522c0 .834.228 1.475.684 1.921.456.447 1.126.67 2.01.67.843 0 1.492-.224 1.948-.673.456-.45.684-1.093.684-1.931v-6.508h1.162zM141.607 56h-1.326l-5.462-8.388h-.055c.073.985.11 1.887.11 2.707V56H133.8v-9.994h1.313l5.448 8.353h.055a75.95 75.95 0 0 1-.062-1.186 20.579 20.579 0 0 1-.034-1.432v-5.735h1.087V56zm10.726-5.093c0 1.65-.448 2.911-1.344 3.784-.895.873-2.184 1.309-3.865 1.309h-2.769v-9.994h3.062c1.555 0 2.762.43 3.624 1.292.86.861 1.292 2.064 1.292 3.61zm-1.23.041c0-1.303-.328-2.285-.982-2.946-.654-.66-1.626-.991-2.915-.991h-1.689v7.984h1.415c1.386 0 2.427-.34 3.124-1.022.697-.681 1.046-1.69 1.046-3.025zm9.46 5.052l-1.244-3.179h-4.006L154.083 56h-1.176l3.95-10.035h.978L161.766 56h-1.203zm-1.606-4.225l-1.163-3.096c-.15-.392-.305-.873-.464-1.443-.1.438-.244.919-.431 1.443l-1.176 3.096h3.234zM165.239 56h-1.162v-8.962h-3.165v-1.032h7.492v1.032h-3.165V56zm4.669 0v-9.994h1.162V56h-1.162zm12.578-5.01c0 1.599-.405 2.857-1.214 3.773-.808.916-1.933 1.374-3.373 1.374-1.472 0-2.608-.45-3.408-1.35-.8-.9-1.2-2.17-1.2-3.811 0-1.627.402-2.889 1.204-3.784.802-.896 1.941-1.343 3.418-1.343 1.435 0 2.556.455 3.363 1.367.807.911 1.21 2.17 1.21 3.773zm-7.964 0c0 1.353.288 2.38.865 3.079.576.7 1.414 1.05 2.512 1.05 1.107 0 1.944-.35 2.509-1.047s.847-1.725.847-3.083c0-1.344-.281-2.364-.844-3.059-.563-.695-1.396-1.042-2.498-1.042-1.108 0-1.95.35-2.526 1.049-.577.7-.865 1.717-.865 3.052zM192.521 56h-1.326l-5.462-8.388h-.055c.073.985.11 1.887.11 2.707V56h-1.074v-9.994h1.313l5.448 8.353h.055a75.97 75.97 0 0 1-.062-1.186 20.58 20.58 0 0 1-.034-1.432v-5.735h1.087V56z"/></g></svg>
